X: 2630
T: Banba, The
R: reel
M: 4/4
K: Gmajor
eged BedB|AdBA GEDE|GEDG GABd|egdg BA A2|
fged BedB|AdBA GEDE|GEDG GABd|gedB ~G3z:|
|:gedg edBd|gedg eaaa|gedg edBd|egdG BAAA|
gedg edBd|gedg a3a|b2 ag e/f/g- gg|1 gedB A3g:|2 gedB A3 B/c/d||

